X: 215
P: Longways for as many as will
M: 9/4
L: 1/4
K: D
(FA2) A2B AFD | (GB2) Bcd E2E | (FA2) A2B AFd | GB2 =c2B AFD |]
(Ad2) d>e f/e/ d2D | FAB AdF E2d | (ce2) e>f g/f/ e2E | G>A B/c/ d2e fed |

